website/static/img/icons/white/calendar.svg

<svg fill="none" height="27" viewBox="0 0 27 27" width="27" xmlns="http://www.w3.org/2000/svg"><path d="m24.2995 8.1c0-1.49117-1.2088-2.7-2.7-2.7h-16.19999c-1.49117 0-2.7 1.20883-2.7 2.7zm0 2.7h-21.59999v10.8c0 1.4912 1.20883 2.7 2.7 2.7h16.19999c1.4912 0 2.7-1.2088 2.7-2.7zm-5.4-8.1v-1.35c0-.745584.6044-1.35 1.35-1.35s1.35.604416 1.35 1.35v1.35c2.9823 0 5.4 2.41766 5.4 5.4v13.5c0 2.9823-2.4177 5.4-5.4 5.4h-16.19999c-2.98234 0-5.39999828-2.4177-5.39999828-5.4v-13.5c0-2.98234 2.41765828-5.4 5.39999828-5.4v-1.35c0-.745584.60442-1.35 1.35-1.35.74559 0 1.35.604416 1.35 1.35v1.35zm-10.79999 13.5c-.74558 0-1.35-.6044-1.35-1.35s.60442-1.35 1.35-1.35c.74559 0 1.35.6044 1.35 1.35s-.60441 1.35-1.35 1.35zm5.39999 0c-.7456 0-1.35-.6044-1.35-1.35s.6044-1.35 1.35-1.35 1.35.6044 1.35 1.35-.6044 1.35-1.35 1.35zm5.4 0c-.7456 0-1.35-.6044-1.35-1.35s.6044-1.35 1.35-1.35 1.35.6044 1.35 1.35-.6044 1.35-1.35 1.35zm0 5.4c-.7456 0-1.35-.6044-1.35-1.35s.6044-1.35 1.35-1.35 1.35.6044 1.35 1.35-.6044 1.35-1.35 1.35zm-5.4 0c-.7456 0-1.35-.6044-1.35-1.35s.6044-1.35 1.35-1.35 1.35.6044 1.35 1.35-.6044 1.35-1.35 1.35zm-5.39999 0c-.74558 0-1.35-.6044-1.35-1.35s.60442-1.35 1.35-1.35c.74559 0 1.35.6044 1.35 1.35s-.60441 1.35-1.35 1.35z" fill="#fff"/></svg>

<svg width="27" height="27" viewBox="0 0 27 27" fill="none" xmlns="http://www.w3.org/2000/svg">
<path d="M24.2995 8.1C24.2995 6.60883 23.0907 5.4 21.5995 5.4H5.39951C3.90834 5.4 2.69951 6.60883 2.69951 8.1H24.2995ZM24.2995 10.8H2.69951V21.6C2.69951 23.0912 3.90834 24.3 5.39951 24.3H21.5995C23.0907 24.3 24.2995 23.0912 24.2995 21.6V10.8ZM18.8995 2.7V1.35C18.8995 0.604416 19.5039 0 20.2495 0C20.9951 0 21.5995 0.604416 21.5995 1.35V2.7C24.5818 2.7 26.9995 5.11766 26.9995 8.1V21.6C26.9995 24.5823 24.5818 27 21.5995 27H5.39951C2.41717 27 -0.000488281 24.5823 -0.000488281 21.6V8.1C-0.000488281 5.11766 2.41717 2.7 5.39951 2.7V1.35C5.39951 0.604416 6.00393 0 6.74951 0C7.4951 0 8.09951 0.604416 8.09951 1.35V2.7H18.8995ZM8.09951 16.2C7.35393 16.2 6.74951 15.5956 6.74951 14.85C6.74951 14.1044 7.35393 13.5 8.09951 13.5C8.8451 13.5 9.44951 14.1044 9.44951 14.85C9.44951 15.5956 8.8451 16.2 8.09951 16.2ZM13.4995 16.2C12.7539 16.2 12.1495 15.5956 12.1495 14.85C12.1495 14.1044 12.7539 13.5 13.4995 13.5C14.2451 13.5 14.8495 14.1044 14.8495 14.85C14.8495 15.5956 14.2451 16.2 13.4995 16.2ZM18.8995 16.2C18.1539 16.2 17.5495 15.5956 17.5495 14.85C17.5495 14.1044 18.1539 13.5 18.8995 13.5C19.6451 13.5 20.2495 14.1044 20.2495 14.85C20.2495 15.5956 19.6451 16.2 18.8995 16.2ZM18.8995 21.6C18.1539 21.6 17.5495 20.9956 17.5495 20.25C17.5495 19.5044 18.1539 18.9 18.8995 18.9C19.6451 18.9 20.2495 19.5044 20.2495 20.25C20.2495 20.9956 19.6451 21.6 18.8995 21.6ZM13.4995 21.6C12.7539 21.6 12.1495 20.9956 12.1495 20.25C12.1495 19.5044 12.7539 18.9 13.4995 18.9C14.2451 18.9 14.8495 19.5044 14.8495 20.25C14.8495 20.9956 14.2451 21.6 13.4995 21.6ZM8.09951 21.6C7.35393 21.6 6.74951 20.9956 6.74951 20.25C6.74951 19.5044 7.35393 18.9 8.09951 18.9C8.8451 18.9 9.44951 19.5044 9.44951 20.25C9.44951 20.9956 8.8451 21.6 8.09951 21.6Z" fill="white"/>
</svg>
